-----BEGIN PGP SIGNATURE-----

iQIzBAABCAAdFiEE+tfQOzhsifEILKfLehYWe/cdL5EFAmqqZ1YACgkQehYWe/cd
L5ELWw/+IFkoaBF/GfmsqmYIipEcNFbFQNfs/JNV1JXd4jGxUi72k8fjLKx10ye4
EaMHKqass0wuR0GSgyPjKXDrqrPRkVBesQkeTErX9q80RgDGL8CI7MbBaBuIr0pr
JBu0PKAmClynyIGYt/BGM43Wt/kF+Wp4PNGfS57uZidCZGPONfoNgTCWQmGi/uN+
dcsxZPyHQ/0Hq5zY7c6YO3kr3fC7kXKyJwYUcUaBEmhyRYhsxqXZmoGfrLo5Vqkl
18yfOqVjw+Mk7ohtVGn89rG0i8kwEJiP0d7m6zk48C3bALhYXpm6Ea4sD2scYtID
ElHG/D2jEZEMDwoA7BSXB9tJn9WHKKZNNAtkiSmFZMf8PsXRHsZxYoMlxQbREF01
YYLONdBfsX6PrIO9ZQ9/iwysjK65O9QZ3zmmk3tWtfxkZiPs3JypvYTYJbpDOei2
/oD7a9ZOcSsgEEhNGHvHZNS5X0t0E7z9rPhUH6PjEnesv0Nhym0gfeEE0gIryNkk
qDXrFil+i+l2rIy2b6S63WgMSpStA/H83EulK9eB7G9+Xx8u7eaCyqB65/x6ahqQ
QfUIlpFkXngWRbYL6IK4Dy6Y/+XJqlengnXiosY0mD7S9jB9ijsW9iZOtk/igci6
KB/FQB4pIl9xZUCR9w+Lap78Vrgdm4CHZN6Nt2T/Cnzgk3CYTXo=
=WaG0
-----END PGP SIGNATURE-----
